svgs/regular/tally-4.svg

<svg xmlns="http://www.w3.org/2000/svg" viewBox="0 0 640 512"><!--! Font Awesome Pro 6.6.0 by @fontawesome - https://fontawesome.com License - https://fontawesome.com/license (Commercial License) Copyright 2024 Fonticons, Inc. --><path d="M152 64c0-13.3-10.7-24-24-24s-24 10.7-24 24l0 384c0 13.3 10.7 24 24 24s24-10.7 24-24l0-384zm128 0c0-13.3-10.7-24-24-24s-24 10.7-24 24l0 384c0 13.3 10.7 24 24 24s24-10.7 24-24l0-384zM384 40c-13.3 0-24 10.7-24 24l0 384c0 13.3 10.7 24 24 24s24-10.7 24-24l0-384c0-13.3-10.7-24-24-24zM536 64c0-13.3-10.7-24-24-24s-24 10.7-24 24l0 384c0 13.3 10.7 24 24 24s24-10.7 24-24l0-384z"/></svg>

<svg xmlns="http://www.w3.org/2000/svg" viewBox="0 0 640 512"><!--! Font Awesome Pro 6.4.2 by @fontawesome - https://fontawesome.com License - https://fontawesome.com/license (Commercial License) Copyright 2023 Fonticons, Inc. --><path d="M152 64c0-13.3-10.7-24-24-24s-24 10.7-24 24V448c0 13.3 10.7 24 24 24s24-10.7 24-24V64zm128 0c0-13.3-10.7-24-24-24s-24 10.7-24 24V448c0 13.3 10.7 24 24 24s24-10.7 24-24V64zM384 40c-13.3 0-24 10.7-24 24V448c0 13.3 10.7 24 24 24s24-10.7 24-24V64c0-13.3-10.7-24-24-24zM536 64c0-13.3-10.7-24-24-24s-24 10.7-24 24V448c0 13.3 10.7 24 24 24s24-10.7 24-24V64z"/></svg>
